images/chess_theme_light.svg

<svg width="50" height="50" viewBox="0 0 50 50" fill="none" xmlns="http://www.w3.org/2000/svg">
<path d="M17.5852 0.248457C17.3182 0.164158 16.9905 0.0768299 16.857 0.0543631C16.7235 0.0318963 16.3302 0.00796419 15.983 0.00122414C15.9405 0.000397701 15.8964 9.90227e-08 15.8514 0C15.5298 -7.08561e-07 15.1634 0.0203514 14.9877 0.0495767C14.7375 0.0911892 14.6236 0.160836 14.6236 0.272096C14.6236 0.361182 14.8639 1.41966 15.1577 2.62428C15.4514 3.82889 15.6917 4.88542 15.6917 4.97216C15.6917 5.059 15.5777 5.23649 15.4384 5.36679C15.2991 5.497 14.8402 6.03367 14.4188 6.55929C13.9973 7.08492 13.3533 7.96406 12.9877 8.51293C12.622 9.06181 12.0337 10.0345 11.6803 10.6745C11.3269 11.3144 10.7703 12.4477 10.4434 13.1926C10.1165 13.9376 9.65214 15.1063 9.41152 15.7897C8.9931 16.9781 8.97572 17.0707 9.0131 17.9115C9.04058 18.5314 9.11322 18.9275 9.25926 19.2547C9.37316 19.51 9.6934 19.9603 9.97092 20.2555C10.2553 20.558 10.7131 20.9095 11.0202 21.0612C11.5044 21.3005 11.6727 21.3304 12.5359 21.3304C13.3985 21.3304 13.5665 21.3006 14.041 21.0636C14.3347 20.9168 15.012 20.4196 15.5461 19.9587C16.0801 19.4977 16.7463 18.9672 17.0264 18.7798C17.3066 18.5922 17.8091 18.3112 18.1431 18.1551C18.4771 17.999 19.2511 17.7352 19.8632 17.5688C20.4751 17.4025 21.1867 17.1598 21.4444 17.0296L21.9129 16.7928L22.0139 17.0591C22.0694 17.2055 22.1781 17.5672 22.2552 17.8627C22.3324 18.1581 22.3977 18.7797 22.4003 19.2439C22.4029 19.7081 22.354 20.2788 22.2915 20.5122C22.2291 20.7454 22.0677 21.1569 21.933 21.4264C21.7983 21.6959 21.5439 22.1143 21.3677 22.356C21.1914 22.5978 20.2986 23.5429 19.3837 24.4562C18.4687 25.3695 17.4847 26.4245 17.1972 26.8005C16.9096 27.1766 16.5421 27.77 16.3805 28.1193C16.2189 28.4685 16.0103 29.0399 15.917 29.3891C15.8035 29.814 15.7462 30.3956 15.7438 31.1474C15.7418 31.7652 15.7751 32.4356 15.8175 32.637L15.8948 33.0033H37.713L37.7657 32.7836C37.7947 32.6626 37.9305 31.8825 38.0676 31.0497C38.2046 30.217 38.3854 28.9422 38.4693 28.2169C38.5532 27.4916 38.6465 25.8206 38.6765 24.5036C38.7108 22.9907 38.6885 21.6258 38.6157 20.797C38.5522 20.0754 38.4118 18.9609 38.3037 18.3201C38.1954 17.6794 37.959 16.6121 37.7782 15.9485C37.5974 15.2848 37.2538 14.2517 37.0147 13.6528C36.7757 13.0537 36.332 12.1185 36.029 11.5745C35.726 11.0305 35.2255 10.2337 34.9169 9.8039C34.6083 9.3741 33.9962 8.63601 33.5564 8.16382C33.1167 7.69152 32.4458 7.04966 32.0654 6.73747C31.6851 6.42518 31.0461 5.94868 30.6456 5.6785C30.245 5.40821 29.5022 4.96659 28.9948 4.69699C28.4875 4.42739 27.6791 4.05112 27.1984 3.86083C26.7178 3.67064 25.9312 3.39997 25.4506 3.2594C24.9699 3.11884 24.1785 2.92064 23.692 2.81905C23.2055 2.71746 22.3597 2.58813 21.8125 2.53158L20.8176 2.42891L20.1066 1.76096C19.7155 1.39348 19.0975 0.937407 18.7332 0.747319C18.3689 0.55723 17.8523 0.332659 17.5852 0.248457Z" fill="#0086FF"/>
<path d="M26.8957 50H41.9839L41.4074 47.6867C41.0903 46.4143 40.8087 45.3372 40.7816 45.2931C40.7546 45.249 34.4783 45.224 26.8344 45.2377L12.9364 45.2624L12.3748 47.5091C12.0658 48.7448 11.8119 49.8108 11.8103 49.8779C11.8082 49.9751 14.8885 50 26.8957 50Z" fill="#0086FF"/>
<path d="M40.6957 36.2947C40.8559 36.4932 41.1081 36.8339 41.2561 37.0518C41.4042 37.2696 41.6384 37.8096 41.7768 38.2517C41.9997 38.9644 42.0233 39.1748 41.985 40.1077C41.9531 40.8854 41.8851 41.3063 41.7245 41.7215L41.5071 42.2831H12.2224L12.0673 41.868C11.9819 41.6397 11.8678 41.255 11.8136 41.0133C11.7596 40.7715 11.7142 40.2792 11.7129 39.9191C11.7116 39.5592 11.7585 39.0317 11.817 38.7469C11.8756 38.4623 12.0693 37.9202 12.2476 37.5422C12.4258 37.1644 12.7529 36.6479 12.9747 36.3945L13.3778 35.9338H40.4044L40.6957 36.2947Z" fill="#0069B7"/>
</svg>

<svg width="50" height="50" fill="none" xmlns="http://www.w3.org/2000/svg"><path d="M17.585.248a7.314 7.314 0 0 0-.728-.194A8.626 8.626 0 0 0 15.851 0c-.321 0-.688.02-.863.05-.25.041-.364.11-.364.222 0 .09.24 1.148.534 2.352.293 1.205.534 2.261.534 2.348 0 .087-.114.264-.254.395-.139.13-.598.667-1.02 1.192a33.241 33.241 0 0 0-1.43 1.954 36.872 36.872 0 0 0-1.308 2.162 37.67 37.67 0 0 0-1.237 2.518 45.308 45.308 0 0 0-1.031 2.597c-.419 1.188-.436 1.28-.399 2.122.028.62.1 1.015.246 1.343.114.255.434.705.712 1 .284.303.742.655 1.05.806.483.24.652.27 1.515.27.863 0 1.03-.03 1.505-.267.294-.147.971-.644 1.505-1.105.534-.461 1.2-.992 1.48-1.18.28-.187.783-.468 1.117-.624.334-.156 1.108-.42 1.72-.586.612-.166 1.324-.41 1.581-.54l.469-.236.1.266c.056.146.165.508.242.804.077.295.143.917.145 1.38.003.465-.046 1.036-.108 1.27a5.944 5.944 0 0 1-.359.913 8.11 8.11 0 0 1-.565.93c-.177.242-1.07 1.187-1.984 2.1-.915.913-1.9 1.968-2.187 2.345a8.622 8.622 0 0 0-.816 1.318c-.162.35-.37.92-.464 1.27-.114.425-.17 1.007-.173 1.758-.002.618.031 1.289.074 1.49l.077.366h21.818l.053-.22a72.717 72.717 0 0 0 .704-4.567c.083-.724.177-2.395.206-3.712.035-1.513.012-2.878-.06-3.707a38.216 38.216 0 0 0-.312-2.477 29.887 29.887 0 0 0-.526-2.372 25.76 25.76 0 0 0-.763-2.295 21.67 21.67 0 0 0-.986-2.079 22.241 22.241 0 0 0-1.112-1.77c-.309-.43-.92-1.168-1.36-1.64a18.953 18.953 0 0 0-1.492-1.427 23.036 23.036 0 0 0-1.42-1.059c-.4-.27-1.143-.711-1.65-.981a21.57 21.57 0 0 0-1.797-.836 24.28 24.28 0 0 0-1.747-.602 28.788 28.788 0 0 0-1.759-.44 22.44 22.44 0 0 0-1.88-.287l-.994-.103-.711-.668c-.392-.368-1.01-.824-1.374-1.014a8.902 8.902 0 0 0-1.148-.499ZM26.896 50h15.088l-.577-2.313c-.317-1.273-.598-2.35-.625-2.394-.027-.044-6.304-.069-13.948-.055l-13.898.024-.561 2.247c-.31 1.236-.563 2.302-.565 2.369-.002.097 3.079.122 15.086.122Z" fill="#0086FF"/><path d="M40.696 36.295c.16.198.412.539.56.757.148.218.382.758.52 1.2.224.712.247.923.209 1.856-.032.777-.1 1.198-.26 1.614l-.218.561H12.222l-.155-.415a7.863 7.863 0 0 1-.253-.855 6.33 6.33 0 0 1-.101-1.094c-.001-.36.046-.887.104-1.172.059-.285.252-.827.43-1.205.179-.378.506-.894.728-1.148l.403-.46h27.026l.292.36Z" fill="#0069B7"/></svg>
